!!!COM: Anon.
!!!OTL: Crucifigat Omnes
!!!SCA: Folio 231'-232
!!!YOR: from 'Thirty-Five Conductus for Two and Three Voices', pp.42-43
!!!YOR: edited by Janet Knapp, Collegium Musicum No. 6, Yale University (1965)
!!!YOR: from the School of Notre Dame; circa 1170-1240
!!!YOO: Yale University
!!!YOY: 1965
**kern	**kern	**kern
*M6/8	*M6/8	*M6/8
=1	=1	=1
4g	4G	4d
8f	8F	16e
.	.	16fn
4e	4A	4e
8g	8B	8c
=2	=2	=2
4.d	4.G	4.d
8d	4G	4d
8d	.	.
8e	8r	8r
=3	=3	=3
4g	4G	4d
8f	8F	16e
.	.	16fn
8e	4G	4d
8d	.	.
8c	8G	8g
=4	=4	=4
4c	4G	4g
8c	8A	16g
.	.	16e
4B	4B	4f
8r	8r	8r
=5	=5	=5
4c	4G	4g
8c	8A	16g
.	.	16a
4B	4B	4g
8A	8A	16g
.	.	16f#
=6	=6	=6
4c	4G	4g
8d	8A	16g
.	.	16e
4B	4B	4f#
8r	8r	8r
=7	=7	=7
4d	4G	4g
8d	8A	16g
.	.	16a
4c	4c	4g
8B	8B	16g
.	.	16f#
=8	=8	=8
4d	8A	4g
.	8G	.
8d	8A	16g
.	.	16e
4B	4B	4f#
8r	8r	8r
=9	=9	=9
4d	4G	4g
8c	8F	8g
4A	4A	8f
.	.	8d
8B	8B	8e
=10	=10	=10
4.G	4.d	16d
.	.	16c
.	.	8B
.	.	8A
4G	4d	4G
8r	8r	8r
=11	=11	=11
4B	4B	4f#
8G	8d	16f#
.	.	16d
4F	4c	4g
8A	8d	16g
.	.	16e
=12	=12	=12
4B	4B	4f#
8G	8d	16f#
.	.	16d
4G	4d	4d
8r	8r	8r
=13	=13	=13
4c	4f	4fn
8c	8f	8g
8B	8e	4a
8A	8d	.
8B	8e	8e
=14	=14	=14
4c	4c	4fn
8B	8B	16g
.	.	16f
4A	4c	4e
8G	8d	8d
=15	=15	=15
4B	4B	4f#
8G	8d	16f#
.	.	16d
4F	4c	4g
8A	8d	16g
.	.	16e
=16	=16	=16
4B	4B	4f#
8G	8d	16f#
.	.	16d
4G	4d	4d
8r	8r	8r
=17	=17	=17
4c	4f	4fn
8c	8f	8g
8B	8e	4a
8A	8d	.
8B	8e	8e
=18	=18	=18
4c	4c	4fn
8B	8B	16g
.	.	16f
4A	4c	4e
8G	8d	8d
=19	=19	=19
4B	4B	4f#
8G	8d	16f#
.	.	16d
4F	4c	4g
8A	8d	16g
.	.	16e
=20	=20	=20
4B	4B	4f#
8G	8d	16f#
.	.	16d
4G	4d	4d
8r	8r	8r
=21	=21	=21
4.c	4.c	8g
.	.	8g
.	.	8f#
4.B	4.d	8f#
.	.	8f#
.	.	8e
=22	=22	=22
4.A	8e	8e
.	8e	8e
.	8d	8d
4.B	4.B	4.f#
=23	=23	=23
4.c	4.A	4.g
4.B	4.G	4.f#
=24	=24	=24
8A	8A	8e
8A	8A	8e
8G	8B	8d
4F	4c	4c
8r	8r	8r
=25	=25	=25
4G	4d	4g
8A	8d	16g
.	.	16e
4B	4B	4f#
8c	8A	8e
=26	=26	=26
4A	4c	4g
8G	8c	16g
.	.	16e
4G	4B	4f#
8F	8A	8e
=27	=27	=27
4G	4d	4g
8A	8d	16g
.	.	16e
4B	4B	4f#
8c	8A	8e
=28	=28	=28
4A	4c	4g
8G	8c	16g
.	.	16e
4G	4B	4f#
8F	8B	8d
=29	=29	=29
4.F	4.A	4.c
4G	4G	4d
8r	8r	8r
=30	=30	=30
4G	4B	4g
8A	8d	16g
.	.	16e
4B	4B	4f#
8c	8A	8e
=31	=31	=31
4A	4c	4g
8G	8c	16g
.	.	16e
4G	4B	4f#
8F	8A	8e
=32	=32	=32
4G	4d	4g
8A	8d	16g
.	.	16e
4B	4B	4f#
8c	8A	8e
=33	=33	=33
4A	4c	4g
8G	8c	16g
.	.	16e
4G	4B	4f#
8F	8B	8d
=34	=34	=34
2.F	2.A	2.c
=35	=35	=35
4.G	4.G	4.d
4.r	4.r	4.r
==	==	==
*-	*-	*-
!!!ENC: David Huron
!!!YEC: Copyright 1987, David Huron
!!!EEV: 1.0
